X:1
T: The Laird o' Cockpen
C:
R:Jig
Q:180
K:Gm
M:6/8
L:1/16
|:D2|GA3G2 B4B2|A3FF2 F4A2|G3AG2 g4g2|f3dd2 d4e2|
f2B2d2 f2e2d2|c3dB2 A4Bc|d3ed2 d4c2|B3GG2 G4d2|
g4g2 g3ab2|af3f2 f4a2|g2B2d2 g3ag2|fd3d2 d4de|
f2B2d2 f3ed2|c3dB2 A4Bc|d3ed2 d4c2|BG3G2 G4:|
